svg/fluentui-system-icons/ic_fluent_tent_24_filled.svg

<svg width="24" height="24" viewBox="0 0 24 24" fill="none" xmlns="http://www.w3.org/2000/svg">
<path d="M12.2617 2.20171C11.9663 1.92595 11.5054 1.93389 11.2197 2.21967L9.52017 3.91917C8.36771 5.07163 7.07826 6.0784 5.6807 6.91694C5.28676 7.1533 5.0203 7.55461 4.95533 8.00941L3.59953 17.5H2.75C2.33579 17.5 2 17.8358 2 18.25C2 18.6642 2.33579 19 2.75 19H21.25C21.6642 19 22 18.6642 22 18.25C22 17.8358 21.6642 17.5 21.25 17.5H20.4005L19.0498 8.04533C18.9802 7.55844 18.685 7.13294 18.2532 6.89742C16.7188 6.06047 15.2959 5.03359 14.0181 3.84102L12.2617 2.20171ZM14.0962 15.1176C14.5856 15.9879 15.2192 16.8442 15.7451 17.5H8.28488C8.82017 16.842 9.45742 15.9783 9.91565 15.0956C10.5373 13.8982 11.2388 12.1081 11.777 10.6458C11.8479 10.453 11.9163 10.2652 11.9816 10.0843C12.0409 10.2546 12.1032 10.431 12.1681 10.6121C12.6896 12.0679 13.3948 13.87 14.0962 15.1176Z" fill="#212121"/>
</svg>

<svg xmlns="http://www.w3.org/2000/svg" width="24" height="24"><path d="M12.262 2.202a.75.75 0 0 0-1.042.018l-1.7 1.7a19.934 19.934 0 0 1-3.84 2.997c-.393.236-.66.638-.725 1.092L3.6 17.5h-.85a.75.75 0 0 0 0 1.5h18.5a.75.75 0 0 0 0-1.5h-.85l-1.35-9.455a1.559 1.559 0 0 0-.797-1.148 20.816 20.816 0 0 1-4.235-3.056l-1.756-1.64Zm1.834 12.916c.49.87 1.123 1.726 1.65 2.382H8.284c.535-.658 1.172-1.522 1.63-2.404.622-1.198 1.324-2.988 1.862-4.45.07-.193.14-.38.205-.562.059.17.121.347.186.528.522 1.456 1.227 3.258 1.928 4.506Z"/></svg>
